X:1
T:The Two Sisters
M:6/8
L:1/8
K:G
 D| DGG GFG| A2 B A2 E|F-A A A2 G|F-E F D2 B| d2 B cBA| B3- B2 G| AAA d2 B|\
 G3- G2||
